desc:test (does absolutely nothing)
tags: test
version: 0.02
author: d34dmeat
changelog: 
  + this is a test file that does nothing.
  + it's actually kind of sad
provides:
  test.jsfx
about:
  # Test
  this is a test description waiting to happen
  
  # Tutorial
  if it actually did something a tutorial would be nice.
  
  ### Demos
  there are no demos at this time.
  
license: MIT

in_pin:left input
in_pin:right input
out_pin:left output 
out_pin:right output


slider1:Cuts=1<0,4,1>-Cuts
slider2:Freq1=0.2<0,1,.0001>-Frequency


@init

@slider

@block

@sample
spl0 = spl0;
spl1 = spl1;
